X: 2281
T: Druttinkeils-leitjin
T: Drucken Karl-leiken av Ekor Anders
C: Ekor Anders
S: Bruce Sagan's "scanfolk" session archive 2021-2-9
F: https://app.box.com/s/u6iiren0igvsukrhdducy7orq72jayq8/file/774523337092
F: BlueRoseMusic.org #2821
R: pols, mazurka, waltz
Z: 2021 John Chambers <jc:trillian.mit.edu>
M: 3/4
L: 1/8
K: D
|: {A}dA F2 F2 | FG E2 E2 | AA BA cA |1,3 {ABc}dA cA BA :|2,4 d2 d4 :|
|: {D}[fA]A [fA]A [fA]A | ([BD]<g) g2- g(f | e)d ce [1,3 {a^g}a2 | ba fd A2 :|2,4 ac | d2 d4 :|
